src/icons/twitter.svg

<svg height="32" viewBox="0 0 33 32" width="33" xmlns="http://www.w3.org/2000/svg"><path d="m22.612 12.737c.006.141.01.282.01.425 0 4.337-3.302 9.339-9.34 9.339-1.854 0-3.579-.543-5.032-1.474.257.03.518.045.783.045 1.538 0 2.953-.524 4.077-1.405-1.437-.026-2.649-.975-3.067-2.279.201.038.406.058.618.058.299 0 .589-.04.865-.115-1.502-.301-2.633-1.628-2.633-3.218v-.042c.442.246.949.394 1.487.411-.881-.589-1.461-1.594-1.461-2.732 0-.602.162-1.166.445-1.651 1.619 1.986 4.038 3.293 6.766 3.43-.056-.24-.085-.491-.085-.748 0-1.813 1.47-3.283 3.282-3.283.945 0 1.798.399 2.396 1.037.748-.147 1.451-.42 2.085-.796-.245.766-.766 1.409-1.443 1.816.664-.08 1.296-.256 1.885-.517-.44.658-.997 1.236-1.638 1.699m-6.362-12.737c-8.837 0-16 7.163-16 16 0 8.836 7.163 16 16 16s16-7.164 16-16c0-8.837-7.163-16-16-16" fill="#9b9b9b" fill-rule="evenodd" opacity=".513644"/></svg>

<?xml version="1.0" encoding="UTF-8"?>
<svg width="33px" height="32px" viewBox="0 0 33 32" version="1.1" xmlns="http://www.w3.org/2000/svg" xmlns:xlink="http://www.w3.org/1999/xlink">
    <!-- Generator: Sketch 46.2 (44496) - http://www.bohemiancoding.com/sketch -->
    <title>icon_twitter</title>
    <desc>Created with Sketch.</desc>
    <defs></defs>
    <g id="Page-1" stroke="none" stroke-width="1" fill="none" fill-rule="evenodd" opacity="0.513643569">
        <g id="MH-Home-2" transform="translate(-1057.000000, -3352.000000)" fill="#9B9B9B">
            <g id="Footer" transform="translate(0.000000, 3328.000000)">
                <g id="Group-2" transform="translate(1010.000000, 24.000000)">
                    <g id="icon_twitter" transform="translate(47.000000, 0.000000)">
                        <path d="M22.612,12.737 C22.618,12.878 22.622,13.019 22.622,13.162 C22.622,17.499 19.32,22.501 13.282,22.501 C11.428,22.501 9.703,21.958 8.25,21.027 C8.507,21.057 8.768,21.072 9.033,21.072 C10.571,21.072 11.986,20.548 13.11,19.667 C11.673,19.641 10.461,18.692 10.043,17.388 C10.244,17.426 10.449,17.446 10.661,17.446 C10.96,17.446 11.25,17.406 11.526,17.331 C10.024,17.03 8.893,15.703 8.893,14.113 L8.893,14.071 C9.335,14.317 9.842,14.465 10.38,14.482 C9.499,13.893 8.919,12.888 8.919,11.75 C8.919,11.148 9.081,10.584 9.364,10.099 C10.983,12.085 13.402,13.392 16.13,13.529 C16.074,13.289 16.045,13.038 16.045,12.781 C16.045,10.968 17.515,9.498 19.327,9.498 C20.272,9.498 21.125,9.897 21.723,10.535 C22.471,10.388 23.174,10.115 23.808,9.739 C23.563,10.505 23.042,11.148 22.365,11.555 C23.029,11.475 23.661,11.299 24.25,11.038 C23.81,11.696 23.253,12.274 22.612,12.737 M16.25,0 C7.413,0 0.25,7.163 0.25,16 C0.25,24.836 7.413,32 16.25,32 C25.087,32 32.25,24.836 32.25,16 C32.25,7.163 25.087,0 16.25,0" id="Fill-184"></path>
                    </g>
                </g>
            </g>
        </g>
    </g>
</svg>
